svgs/sharp-solid/user-nurse-hair-long.svg

<svg xmlns="http://www.w3.org/2000/svg" viewBox="0 0 448 512"><!--! Font Awesome Pro 6.6.0 by @fontawesome - https://fontawesome.com License - https://fontawesome.com/license (Commercial License) Copyright 2024 Fonticons, Inc. --><path d="M96 48l0 80 .3 0c-.2 2.6-.3 5.3-.3 8l0 24 0 16s0 0 0 0l0 48L48 272l0 32 176 0 176 0 0-32-48-48 0-48 0-16 0-24c0-2.7-.1-5.4-.3-8l.3 0 0-80L224 0 96 48zm48 128l64 0 32-32 16 16 48 0 0 16c0 44.2-35.8 80-80 80s-80-35.8-80-80zM208 40l32 0 0 24 24 0 0 32-24 0 0 24-32 0 0-24-24 0 0-32 24 0 0-24zm16 384l-82.8-88L64 336 0 512l448 0L384 336l-77.2 0L224 424z"/></svg>

<svg xmlns="http://www.w3.org/2000/svg" viewBox="0 0 448 512"><!--! Font Awesome Pro 6.4.0 by @fontawesome - https://fontawesome.com License - https://fontawesome.com/license (Commercial License) Copyright 2023 Fonticons, Inc. --><path d="M96 48v80h.3c-.2 2.6-.3 5.3-.3 8v24 16 0 48L48 272v32H224 400V272l-48-48V176 160 136c0-2.7-.1-5.4-.3-8h.3V48L224 0 96 48zm48 128h64l32-32 16 16h48v16c0 44.2-35.8 80-80 80s-80-35.8-80-80zM208 40h32V64h24V96H240v24H208V96H184V64h24V40zm16 384l-82.8-88H64L0 512H448L384 336H306.8L224 424z"/></svg>
